X: 1676
T: Sarı Kızın Saçları
C: Salih Turhan
O: Turkey
F: http://compmusic.upf.edu/node/140
N: muhayyer--turku--duyek--sari_kizin--kirsehir
N: makam= muhayyer
N: form= turku
N: usul= duyek = 8/4
M: 8/4
L: 1/16
K: C _2/4B ^3/4f  
Q: 1/4=198
%%MIDI tuningsystem comma53
de2e e2 e2 e2 e4 a2  | g2 fg ee d2 ed cd c2 z2  | \
w:  ARANAĞME  |   | 
de2e e2 e2 e2 e4 a2  | 
w:   | 
g2 fg ee d2 ed cd c2 z2  | d2 e4 e2 e2 e4 a2  | \
w:   |   | 
g2 fg ee d2 ed cB cB c2  | 
w:   | 
z2 Bc B2 A2 cB AB A4  | A3A AA A2 AA A2 A4  | \
w:   |   | 
z4 f2 g2 a2 a6  | 
w:  Sa rı  kı zın   | 
ba g4 f2 ag fg f4  | z4 f2 g2 a2 a6  | \
w:  saç *  la *  rı   |  Sa rı  kı zın   | 
ba g4 f2 ag fg f4  | 
w:  saç *  la *  rı   | 
g2 e4 d2 e2 f2 g2 a2  | z2 fg e2 ed dc d2 dc dB  | \
w:  a man   |  a man_ a man  *  a man_ *  a man_  | 
c3c cc c2 cc c2 c4  | 
w:  ey    | 
e2 ed ec dB c3B cd e2  | e2 ed ec dB c2 z2 cd ed  | 
w:  SAZ  |   | 
e4 d2 e2 e2 e4 a2  | g2 fg ee d2 ed cB cB c2  | \
w:  *  Oy nar_ o muz   |  baş la *  *  *  *  rı   | 
z2 Bc B2 A2 cB AB A4  | 
w:  sa na  yan dım  sa *  rı   | 
A3A AA A2 AA A2 A4  | e4 d2 e2 e2 e4 a2  | \
w:  kız    |  *  Oy nar_ o muz   | 
g2 fg ee d2 ed cB cB c2  | 
w:  baş la *  *  *  *  rı   | 
z2 Bc B2 A2 cB AB A4  | A3A AA A2 AA A2 A4  | \
w:  sa na  yan dım  sa *  rı   |  kız    | 
de2e e2 e2 e2 e4 a2  | 
w:  Yan *  dım_ a man_ a man   | 
g2 fg ee d2 ed cd c2 z2  | de2e e2 e2 e2 e4 a2  | \
w:  sa rı  *  *  *  *  kız    |  Öl *  düm_ a man_ a man   | 
g2 fg ee d2 ed cd c2 z2  | 
w:  sa rı  *  *  *  *  kız    | 
d2 e4 e2 e2 e4 a2  | g2 fg ee d2 ed cB cB c2  | \
w:  Na sıl  da  du ru  |  yon  ben *  *  *  *  siz   | 
z2 Bc B2 A2 cB AB A4  | 
w:  se ni  din siz  i *  man  | 
A3A AA A2 AA A2 A4  | de2e e2 e2 e2 e4 a2  | \
w:  sız    |  Yan *  dım_ a man_ a man   | 
g2 fg ee d2 ed cd c2 z2  | 
w:  sa rı  *  *  *  *  kız    | 
de2e e2 e2 e2 e4 a2  | g2 fg ee d2 ed cd c2 z2  | \
w:  Öl *  düm_ a man_ a man   |  sa rı  *  *  *  *  kız    | 
d2 e4 e2 e2 e4 a2  | 
w:  Na sıl  da  du ru  | 
g2 fg ee d2 ed cB cB c2  | z2 Bc B2 A2 cB AB A4  | 
w:  yon  ben *  *  *  *  siz   |  se ni  din siz  i *  man  | 
A3A AA A2 AA A2 A4  | de2e e2 e2 e2 e4 a2  | \
w:  sız    |  ARANAĞME  | 
g2 fg ee d2 ed cd c2 z2  | 
w:   | 
de2e e2 e2 e2 e4 a2  | g2 fg ee d2 ed cd c2 z2  | \
w:   |   | 
d2 e4 e2 e2 e4 a2  | 
w:   | 
g2 fg ee d2 ed cB cB c2  | z2 Bc B2 A2 cB AB A4  | 
w:   |   | 
A3A AA A2 AA A2 A4  | z4 f2 g2 a2 a6  | \
w:   |  Sa rı  kı zın   | 
ba g4 f2 ag fg f4  | 
w:  saç *  la *  rı   | 
z4 f2 g2 a2 a6  | ba g4 f2 ag fg f4  | \
w:  Sa rı  kı zın   |  saç *  la *  rı   | 
g2 e4 d2 e2 f2 g2 a2  | 
w:  a man   | 
z2 fg e2 ed dc d2 dc dB  | c3c cc c2 cc c2 c4  | 
w:  a man_ a man  *  a man_ *  a man_  |  ey    | 
e2 ed ec dB c3B cd e2  | e2 ed ec dB c2 z2 cd ed  | 
w:  SAZ  |   | 
e4 d2 e2 e2 e4 a2  | g2 fg ee d2 ed cB cB c2  | \
w:  *  Oy nar_ o muz   |  baş la *  *  *  *  rı   | 
z2 Bc B2 A2 cB AB A4  | 
w:  sa na  yan dım  sa *  rı   | 
A3A AA A2 AA A2 A4  | e4 d2 e2 e2 e4 a2  | \
w:  kız    |  *  Oy nar_ o muz   | 
g2 fg ee d2 ed cB cB c2  | 
w:  baş la *  *  *  *  rı   | 
z2 Bc B2 A2 cB AB A4  | A3A AA A2 AA A2 A4  | \
w:  sa na  yan dım  sa *  rı   |  kız    | 
de2e e2 e2 e2 e4 a2  | 
w:  Yan *  dım_ a man_ a man   | 
g2 fg ee d2 ed cd c2 z2  | de2e e2 e2 e2 e4 a2  | \
w:  sa rı  *  *  *  *  kız    |  Öl *  düm_ a man_ a man   | 
g2 fg ee d2 ed cd c2 z2  | 
w:  sa rı  *  *  *  *  kız    | 
d2 e4 e2 e2 e4 a2  | g2 fg ee d2 ed cB cB c2  | \
w:  Na sıl  da  du ru  |  yon  ben *  *  *  *  siz   | 
z2 Bc B2 A2 cB AB A4  | 
w:  se ni  din siz  i *  man  | 
A3A AA A2 AA A2 A4  | de2e e2 e2 e2 e4 a2  | \
w:  sız    |  Yan *  dım_ a man_ a man   | 
g2 fg ee d2 ed cd c2 z2  | 
w:  sa rı  *  *  *  *  kız    | 
de2e e2 e2 e2 e4 a2  | g2 fg ee d2 ed cd c2 z2  | \
w:  Öl *  düm_ a man_ a man   |  sa rı  *  *  *  *  kız    | 
d2 e4 e2 e2 e4 a2  | 
w:  Na sıl  da  du ru  | 
g2 fg ee d2 ed cB cB c2  | z2 Bc B2 A2 cB AB A4  | 
w:  yon  ben *  *  *  *  siz   |  se ni  din siz  i *  man  | 
A3A AA A2 AA A2 A4  | |


